;FLAVOR:Marlin
;TIME:995
;Filament used: 0.579622m
;Layer height: 0.2
;MINX:77.509
;MINY:65.926
;MINZ:0.2
;MAXX:142.491
;MAXY:130.908
;MAXZ:2
;Generated with Cura_SteamEngine 5.2.1
M82 ;absolute extrusion mode
; Ender 3 Custom Start G-code
G92 E0 ; Reset Extruder
G28 ; Home all axes
M104 S230.0 ; Start heating up the nozzle most of the way
M190 S60 ; Start heating the bed, wait until target temperature reached
M109 S220 ; Finish heating the nozzle
G1 Z2.0 F3000 ; Move Z Axis up little to prevent scratching of Heat Bed
G1 X0.1 Y20 Z0.3 F5000.0 ; Move to start position
G1 X0.1 Y200.0 Z0.3 F1500.0 E15 ; Draw the first line
G1 X0.4 Y200.0 Z0.3 F5000.0 ; Move to side a little
G1 X0.4 Y20 Z0.3 F1500.0 E30 ; Draw the second line
G92 E0 ; Reset Extruder
G1 Z2.0 F3000 ; Move Z Axis up little to prevent scratching of Heat Bed
G1 X5 Y20 Z0.3 F5000.0 ; Move over to prevent blob squish
G92 E0
G92 E0
G1 F1500 E-6.5
;LAYER_COUNT:10
;LAYER:0
M106 S255
G0 F6000 X82.562 Y86.768 Z0.2
;TYPE:SKIRT
G1 F1500 E0
G1 F1200 X83.13 Y86.258 E0.02539
G1 X84.247 Y85.323 E0.07384
G1 X84.588 Y85.047 E0.08843
G1 X86.494 Y83.43 E0.17156
G1 X88.368 Y81.747 E0.25534
G1 X90.187 Y80.018 E0.33881
G1 X91.962 Y78.233 E0.42254
G1 X93.683 Y76.4 E0.50616
G1 X95.358 Y74.512 E0.59011
G1 X97.075 Y72.464 E0.679
G1 X97.797 Y71.587 E0.71678
G1 X98.669 Y70.646 E0.75945
G1 X99.072 Y70.259 E0.77803
G1 X99.644 Y69.747 E0.80357
G1 X100.103 Y69.364 E0.82345
G1 X100.848 Y68.794 E0.85465
G1 X101.71 Y68.249 E0.88857
G1 X102.246 Y67.944 E0.90908
G1 X102.927 Y67.588 E0.93464
G1 X103.475 Y67.325 E0.95485
G1 X104.337 Y66.956 E0.98604
G1 X104.989 Y66.731 E1.00898
G1 X105.436 Y66.593 E1.02454
G1 X106.555 Y66.311 E1.06292
G1 X107.281 Y66.168 E1.08753
G1 X108.589 Y65.991 E1.13143
G1 X109.045 Y65.957 E1.14664
G1 X109.824 Y65.927 E1.17257
G1 X110.103 Y65.926 E1.18185
G1 X111.027 Y65.962 E1.21261
G1 X111.436 Y65.995 E1.22626
G1 X112.036 Y66.06 E1.24633
G1 X112.315 Y66.098 E1.25569
G1 X113.402 Y66.302 E1.29248
G1 X114.084 Y66.466 E1.31581
G1 X115.252 Y66.816 E1.35636
G1 X115.678 Y66.97 E1.37143
G1 X116.545 Y67.326 E1.4026
G1 X116.986 Y67.542 E1.41893
G1 X117.499 Y67.807 E1.43814
G1 X118.155 Y68.175 E1.46316
G1 X118.615 Y68.454 E1.48105
G1 X119.644 Y69.16 E1.52256
G1 X120.18 Y69.587 E1.54535
G1 X120.429 Y69.797 E1.55618
G1 X121.262 Y70.577 E1.59414
G1 X121.649 Y70.979 E1.6127
G1 X122.159 Y71.547 E1.63809
G1 X123.094 Y72.664 E1.68654
G1 X123.37 Y73.005 E1.70113
G1 X124.987 Y74.911 E1.78426
G1 X126.669 Y76.784 E1.86799
G1 X128.399 Y78.604 E1.95151
G1 X130.184 Y80.379 E2.03523
G1 X132.017 Y82.1 E2.11886
G1 X133.905 Y83.775 E2.20281
G1 X135.937 Y85.479 E2.29101
G1 X136.83 Y86.214 E2.32948
G1 X137.771 Y87.086 E2.37215
G1 X138.158 Y87.489 E2.39073
G1 X138.664 Y88.053 E2.41593
G1 X139.046 Y88.51 E2.43574
G1 X139.616 Y89.255 E2.46694
G1 X140.168 Y90.127 E2.50127
G1 X140.474 Y90.665 E2.52185
G1 X140.832 Y91.35 E2.54756
G1 X141.073 Y91.853 E2.56611
G1 X141.442 Y92.715 E2.5973
G1 X141.61 Y93.192 E2.61412
G1 X141.768 Y93.676 E2.63105
G1 X142.089 Y94.889 E2.67279
G1 X142.234 Y95.599 E2.69689
G1 X142.382 Y96.525 E2.72808
G1 X142.428 Y97.02 E2.74461
G1 X142.462 Y97.498 E2.76055
G1 X142.49 Y98.239 E2.78521
G1 X142.491 Y98.52 E2.79456
G1 X142.455 Y99.444 E2.82532
G1 X142.422 Y99.853 E2.83896
G1 X142.339 Y100.6 E2.86396
G1 X142.135 Y101.74 E2.90248
G1 X141.994 Y102.342 E2.92305
G1 X141.728 Y103.285 E2.95563
G1 X141.573 Y103.754 E2.97206
G1 X141.241 Y104.631 E3.00325
G1 X140.908 Y105.34 E3.0293
G1 X140.619 Y105.901 E3.05029
G1 X140.255 Y106.552 E3.0751
G1 X139.974 Y107.017 E3.09317
G1 X139.234 Y108.092 E3.13658
G1 X138.83 Y108.597 E3.15809
G1 X138.62 Y108.846 E3.16892
G1 X137.84 Y109.679 E3.20688
G1 X137.438 Y110.066 E3.22544
G1 X136.869 Y110.577 E3.25087
G1 X135.753 Y111.511 E3.29928
G1 X135.431 Y111.771 E3.31304
G1 X133.506 Y113.404 E3.397
G1 X131.632 Y115.087 E3.48078
G1 X129.813 Y116.816 E3.56425
G1 X128.038 Y118.601 E3.64797
G1 X126.317 Y120.434 E3.7316
G1 X124.642 Y122.322 E3.81555
G1 X122.925 Y124.37 E3.90443
G1 X122.203 Y125.247 E3.94222
G1 X121.331 Y126.188 E3.98489
G1 X120.928 Y126.575 E4.00347
G1 X120.356 Y127.087 E4.029
G1 X119.897 Y127.47 E4.04889
G1 X119.152 Y128.04 E4.08009
G1 X118.29 Y128.585 E4.11401
G1 X117.754 Y128.89 E4.13452
G1 X117.073 Y129.246 E4.16008
G1 X116.525 Y129.509 E4.18029
G1 X115.663 Y129.878 E4.21148
G1 X115.011 Y130.103 E4.23442
G1 X114.564 Y130.241 E4.24998
G1 X113.445 Y130.523 E4.28836
G1 X112.719 Y130.666 E4.31297
G1 X111.411 Y130.843 E4.35687
G1 X110.955 Y130.877 E4.37208
G1 X110.176 Y130.907 E4.39801
G1 X109.897 Y130.908 E4.40729
G1 X108.973 Y130.872 E4.43805
G1 X108.564 Y130.839 E4.45169
G1 X107.964 Y130.774 E4.47177
G1 X107.685 Y130.736 E4.48113
G1 X106.598 Y130.532 E4.51792
G1 X105.916 Y130.368 E4.54125
G1 X104.723 Y130.009 E4.58268
G1 X104.292 Y129.852 E4.59794
G1 X103.03 Y129.3 E4.64375
G1 X102.522 Y129.039 E4.66275
G1 X101.83 Y128.651 E4.68914
G1 X101.37 Y128.371 E4.70705
G1 X100.356 Y127.674 E4.74797
G1 X99.817 Y127.244 E4.77091
G1 X99.567 Y127.033 E4.78179
G1 X98.737 Y126.256 E4.8196
G1 X98.35 Y125.854 E4.83816
G1 X97.839 Y125.285 E4.8636
G1 X96.905 Y124.169 E4.912
G1 X96.63 Y123.829 E4.92654
G1 X95.013 Y121.923 E5.00968
G1 X93.33 Y120.049 E5.09345
G1 X91.601 Y118.23 E5.17692
G1 X89.816 Y116.455 E5.26065
G1 X87.983 Y114.734 E5.34428
G1 X86.095 Y113.059 E5.42822
G1 X84.047 Y111.342 E5.51711
G1 X83.168 Y110.618 E5.55499
G1 X82.228 Y109.747 E5.59761
G1 X81.841 Y109.344 E5.61619
G1 X81.328 Y108.771 E5.64177
G1 X80.946 Y108.313 E5.66161
G1 X80.376 Y107.567 E5.69283
G1 X79.832 Y106.707 E5.72668
G1 X79.527 Y106.171 E5.74719
G1 X79.168 Y105.485 E5.77294
G1 X78.926 Y104.98 E5.79157
G1 X78.557 Y104.117 E5.82279
G1 X78.387 Y103.634 E5.83982
G1 X78.227 Y103.143 E5.85699
G1 X77.891 Y101.849 E5.90146
G1 X77.749 Y101.124 E5.92603
G1 X77.575 Y99.831 E5.96942
G1 X77.541 Y99.377 E5.98457
G1 X77.51 Y98.595 E6.0106
G1 X77.509 Y98.314 E6.01994
G1 X77.544 Y97.395 E6.05053
G1 X77.577 Y96.984 E6.06424
G1 X77.662 Y96.224 E6.08968
G1 X77.856 Y95.145 E6.12614
G1 X78 Y94.522 E6.14741
G1 X78.29 Y93.494 E6.18294
G1 X78.451 Y93.015 E6.19974
G1 X78.788 Y92.14 E6.23093
G1 X79.093 Y91.495 E6.25466
G1 X79.377 Y90.942 E6.27534
G1 X79.76 Y90.257 E6.30144
G1 X80.04 Y89.796 E6.31938
G1 X80.561 Y89.016 E6.35058
G1 X80.913 Y88.559 E6.36976
G1 X81.26 Y88.133 E6.38804
G1 X82.16 Y87.155 E6.43224
G1 X82.562 Y86.768 E6.4508
G0 F6000 X82.839 Y87.057
G1 F1200 X83.387 Y86.565 E6.4753
G1 X84.504 Y85.63 E6.52375
G1 X84.83 Y85.366 E6.5377
G1 X86.737 Y83.749 E6.62086
G1 X88.647 Y82.033 E6.70626
G1 X90.462 Y80.307 E6.78956
G1 X92.271 Y78.488 E6.87489
G1 X93.973 Y76.676 E6.95757
G1 X95.647 Y74.789 E7.04147
G1 X97.382 Y72.722 E7.13123
G1 X98.106 Y71.842 E7.16913
G1 X98.946 Y70.934 E7.21027
G1 X99.349 Y70.547 E7.22886
G1 X99.9 Y70.054 E7.25345
G1 X100.359 Y69.671 E7.27333
G1 X101.091 Y69.113 E7.30394
G1 X101.908 Y68.597 E7.33608
G1 X102.444 Y68.292 E7.35659
G1 X103.1 Y67.949 E7.38122
G1 X103.648 Y67.686 E7.40143
G1 X104.494 Y67.324 E7.43204
G1 X105.107 Y67.114 E7.45359
G1 X105.554 Y66.976 E7.46915
G1 X106.632 Y66.704 E7.50613
G1 X107.358 Y66.561 E7.53074
G1 X108.619 Y66.39 E7.57306
G1 X109.075 Y66.356 E7.58827
G1 X109.825 Y66.327 E7.61324
G1 X110.104 Y66.326 E7.62252
G1 X110.994 Y66.36 E7.65214
G1 X111.403 Y66.393 E7.66579
G1 X111.982 Y66.456 E7.68516
G1 X112.261 Y66.494 E7.69452
G1 X113.308 Y66.691 E7.72996
G1 X113.99 Y66.855 E7.75329
G1 X115.116 Y67.192 E7.79238
G1 X115.542 Y67.346 E7.80745
G1 X116.803 Y67.897 E7.85322
G1 X117.316 Y68.162 E7.87242
G1 X117.948 Y68.517 E7.89653
G1 X118.408 Y68.796 E7.91442
G1 X119.399 Y69.477 E7.95442
G1 X119.922 Y69.893 E7.97664
G1 X120.171 Y70.103 E7.98748
G1 X120.973 Y70.854 E8.02402
G1 X121.36 Y71.256 E8.04258
G1 X121.852 Y71.804 E8.06708
G1 X122.787 Y72.921 E8.11553
G1 X123.051 Y73.247 E8.12948
G1 X124.683 Y75.172 E8.21342
G1 X126.366 Y77.046 E8.29719
G1 X128.11 Y78.879 E8.38134
G1 X129.929 Y80.688 E8.46667
G1 X131.741 Y82.39 E8.54935
G1 X133.628 Y84.064 E8.63325
G1 X135.695 Y85.799 E8.72301
G1 X136.575 Y86.523 E8.76091
G1 X137.483 Y87.363 E8.80205
G1 X137.87 Y87.766 E8.82064
G1 X138.357 Y88.31 E8.84492
G1 X138.739 Y88.767 E8.86473
G1 X139.298 Y89.498 E8.89534
G1 X139.82 Y90.324 E8.92784
G1 X140.126 Y90.862 E8.94842
G1 X140.471 Y91.523 E8.97322
G1 X140.712 Y92.026 E8.99177
G1 X141.074 Y92.873 E9.02241
G1 X141.23 Y93.317 E9.03806
G1 X141.388 Y93.801 E9.055
G1 X141.697 Y94.969 E9.09518
G1 X141.842 Y95.679 E9.11928
G1 X141.987 Y96.588 E9.1499
G1 X142.063 Y97.526 E9.1812
G1 X142.09 Y98.24 E9.20496
G1 X142.091 Y98.521 E9.21431
G1 X142.057 Y99.411 E9.24393
G1 X142.024 Y99.82 E9.25758
G1 X141.943 Y100.551 E9.28204
G1 X141.746 Y101.648 E9.31911
G1 X141.605 Y102.25 E9.33968
G1 X141.349 Y103.159 E9.37109
G1 X141.194 Y103.628 E9.38752
G1 X140.867 Y104.489 E9.41815
G1 X140.552 Y105.156 E9.44268
G1 X140.263 Y105.717 E9.46367
G1 X139.912 Y106.345 E9.4876
G1 X139.631 Y106.81 E9.50567
G1 X138.918 Y107.846 E9.5475
G1 X138.524 Y108.339 E9.56849
G1 X138.314 Y108.588 E9.57932
G1 X137.563 Y109.39 E9.61587
G1 X137.161 Y109.777 E9.63443
G1 X136.612 Y110.27 E9.65897
G1 X135.496 Y111.204 E9.70737
G1 X135.168 Y111.47 E9.72142
G1 X133.263 Y113.085 E9.80448
G1 X131.353 Y114.801 E9.88988
G1 X129.538 Y116.527 E9.97319
G1 X127.729 Y118.346 E10.05851
G1 X126.027 Y120.158 E10.1412
G1 X124.353 Y122.045 E10.2251
G1 X122.618 Y124.112 E10.31485
G1 X121.894 Y124.992 E10.35276
G1 X121.054 Y125.9 E10.3939
G1 X120.651 Y126.287 E10.41248
G1 X120.1 Y126.78 E10.43707
G1 X119.641 Y127.163 E10.45695
G1 X118.909 Y127.721 E10.48757
G1 X118.092 Y128.237 E10.51971
G1 X117.556 Y128.542 E10.54022
G1 X116.9 Y128.885 E10.56484
G1 X116.352 Y129.148 E10.58506
G1 X115.506 Y129.51 E10.61566
G1 X114.893 Y129.72 E10.63721
G1 X114.446 Y129.858 E10.65277
G1 X113.368 Y130.13 E10.68975
G1 X112.642 Y130.273 E10.71436
G1 X111.381 Y130.444 E10.75669
G1 X110.925 Y130.478 E10.7719
G1 X110.175 Y130.507 E10.79686
G1 X109.896 Y130.508 E10.80614
G1 X109.006 Y130.474 E10.83576
G1 X108.597 Y130.441 E10.84941
G1 X108.018 Y130.378 E10.86878
G1 X107.739 Y130.34 E10.87815
G1 X106.692 Y130.143 E10.91358
G1 X106.01 Y129.979 E10.93691
G1 X104.86 Y129.633 E10.97685
G1 X104.429 Y129.476 E10.99211
G1 X103.213 Y128.944 E11.03626
G1 X102.705 Y128.683 E11.05525
G1 X102.038 Y128.31 E11.08067
G1 X101.578 Y128.03 E11.09858
G1 X100.601 Y127.357 E11.13804
G1 X100.075 Y126.938 E11.16041
G1 X99.825 Y126.727 E11.17129
G1 X99.026 Y125.979 E11.20769
G1 X98.639 Y125.577 E11.22625
G1 X98.146 Y125.028 E11.25079
G1 X97.212 Y123.912 E11.29919
G1 X96.949 Y123.587 E11.3131
G1 X95.332 Y121.68 E11.39626
G1 X93.616 Y119.77 E11.48166
G1 X91.89 Y117.955 E11.56496
G1 X90.071 Y116.146 E11.65029
G1 X88.259 Y114.444 E11.73297
G1 X86.372 Y112.77 E11.81687
G1 X84.304 Y111.036 E11.90663
G1 X83.423 Y110.31 E11.9446
G1 X82.516 Y109.47 E11.98572
G1 X82.129 Y109.067 E12.0043
G1 X81.635 Y108.514 E12.02897
G1 X81.253 Y108.056 E12.0488
G1 X80.694 Y107.324 E12.07944
G1 X80.18 Y106.509 E12.11148
G1 X79.875 Y105.973 E12.132
G1 X79.529 Y105.312 E12.15681
G1 X79.287 Y104.807 E12.17544
G1 X78.925 Y103.96 E12.20607
G1 X78.768 Y103.51 E12.22192
G1 X78.608 Y103.019 E12.2391
G1 X78.284 Y101.772 E12.28195
G1 X78.142 Y101.047 E12.30653
G1 X77.974 Y99.802 E12.34831
G1 X77.94 Y99.348 E12.36345
G1 X77.91 Y98.594 E12.38855
G1 X77.909 Y98.313 E12.3979
G1 X77.943 Y97.427 E12.42739
G1 X77.976 Y97.016 E12.4411
G1 X78.059 Y96.275 E12.4659
G1 X78.245 Y95.235 E12.50104
G1 X78.389 Y94.612 E12.52231
G1 X78.669 Y93.622 E12.55653
G1 X78.83 Y93.143 E12.57333
G1 X79.161 Y92.284 E12.60395
G1 X79.449 Y91.678 E12.62627
G1 X79.733 Y91.125 E12.64694
G1 X80.102 Y90.464 E12.67212
G1 X80.382 Y90.003 E12.69006
G1 X80.894 Y89.238 E12.72068
G1 X81.223 Y88.812 E12.73858
G1 X81.57 Y88.386 E12.75686
G1 X82.437 Y87.444 E12.79944
G1 X82.839 Y87.057 E12.818
G0 F6000 X83.117 Y87.345
G1 F1200 X83.644 Y86.872 E12.84155
G1 X85.075 Y85.682 E12.90345
G1 X87.034 Y84.021 E12.98888
G1 X88.907 Y82.338 E13.07263
G1 X90.739 Y80.596 E13.15671
G1 X92.564 Y78.762 E13.24276
G1 X94.248 Y76.969 E13.32458
G1 X95.97 Y75.027 E13.4109
G1 X97.688 Y72.978 E13.49984
G1 X98.414 Y72.096 E13.53783
G1 X99.223 Y71.223 E13.57742
G1 X99.626 Y70.836 E13.596
G1 X100.156 Y70.361 E13.61968
G1 X100.615 Y69.978 E13.63956
G1 X101.333 Y69.431 E13.66958
G1 X102.105 Y68.945 E13.69992
G1 X102.641 Y68.64 E13.72043
G1 X103.273 Y68.309 E13.74416
G1 X103.821 Y68.046 E13.76438
G1 X104.651 Y67.692 E13.79439
G1 X105.225 Y67.496 E13.81456
G1 X105.672 Y67.358 E13.83012
G1 X106.71 Y67.096 E13.86573
G1 X107.436 Y66.953 E13.89034
G1 X108.649 Y66.789 E13.93105
G1 X109.105 Y66.755 E13.94626
G1 X109.826 Y66.727 E13.97026
G1 X110.105 Y66.726 E13.97954
G1 X110.962 Y66.759 E14.00807
G1 X111.371 Y66.792 E14.02171
G1 X111.928 Y66.852 E14.04035
G1 X112.207 Y66.89 E14.04971
G1 X113.215 Y67.08 E14.08383
G1 X113.897 Y67.244 E14.10716
G1 X114.98 Y67.569 E14.14477
G1 X115.406 Y67.723 E14.15983
G1 X116.619 Y68.253 E14.20386
G1 X117.132 Y68.518 E14.22306
G1 X117.741 Y68.859 E14.24628
G1 X118.201 Y69.138 E14.26417
G1 X119.154 Y69.793 E14.30263
G1 X119.664 Y70.199 E14.32432
G1 X119.913 Y70.409 E14.33515
G1 X120.685 Y71.132 E14.37033
G1 X121.072 Y71.534 E14.38889
G1 X121.545 Y72.061 E14.41244
G1 X122.735 Y73.492 E14.47434
G1 X124.397 Y75.451 E14.55979
G1 X126.078 Y77.323 E14.64347
G1 X127.821 Y79.156 E14.7276
G1 X129.655 Y80.981 E14.81365
G1 X131.448 Y82.665 E14.89547
G1 X133.39 Y84.387 E14.98179
G1 X135.415 Y86.085 E15.06969
G1 X136.321 Y86.831 E15.10872
G1 X137.194 Y87.64 E15.14831
G1 X137.581 Y88.043 E15.1669
G1 X138.05 Y88.566 E15.19026
G1 X138.432 Y89.023 E15.21007
G1 X138.98 Y89.741 E15.24011
G1 X139.472 Y90.522 E15.27081
G1 X139.778 Y91.06 E15.2914
G1 X140.111 Y91.696 E15.31528
G1 X140.352 Y92.199 E15.33383
G1 X140.849 Y93.441 E15.37832
G1 X141.007 Y93.925 E15.39526
G1 X141.305 Y95.049 E15.43393
G1 X141.45 Y95.759 E15.45803
G1 X141.63 Y97.076 E15.50224
G1 X141.664 Y97.554 E15.51818
G1 X141.69 Y98.242 E15.54108
G1 X141.691 Y98.523 E15.55043
G1 X141.658 Y99.379 E15.57892
G1 X141.625 Y99.788 E15.59257
G1 X141.546 Y100.501 E15.61643
G1 X141.356 Y101.557 E15.65211
G1 X141.215 Y102.159 E15.67268
G1 X140.969 Y103.034 E15.70291
G1 X140.814 Y103.503 E15.71934
G1 X140.493 Y104.347 E15.74937
G1 X140.197 Y104.973 E15.7724
G1 X139.908 Y105.534 E15.79339
G1 X139.57 Y106.138 E15.81641
G1 X139.289 Y106.603 E15.83448
G1 X138.603 Y107.6 E15.87473
G1 X138.218 Y108.081 E15.89523
G1 X138.008 Y108.33 E15.90606
G1 X137.285 Y109.102 E15.94124
G1 X136.883 Y109.489 E15.9598
G1 X136.355 Y109.963 E15.9834
G1 X134.922 Y111.154 E16.04537
G1 X132.966 Y112.813 E16.13068
G1 X131.093 Y114.496 E16.21443
G1 X129.261 Y116.238 E16.29851
G1 X127.436 Y118.072 E16.38457
G1 X125.752 Y119.865 E16.46638
G1 X124.03 Y121.807 E16.55271
G1 X122.312 Y123.856 E16.64164
G1 X121.586 Y124.738 E16.67964
G1 X120.777 Y125.611 E16.71922
G1 X120.374 Y125.998 E16.73781
G1 X119.844 Y126.473 E16.76148
G1 X119.385 Y126.856 E16.78136
G1 X118.667 Y127.403 E16.81138
G1 X117.895 Y127.889 E16.84172
G1 X117.359 Y128.194 E16.86224
G1 X116.727 Y128.525 E16.88596
G1 X116.179 Y128.788 E16.90618
G1 X115.349 Y129.142 E16.93619
G1 X114.775 Y129.338 E16.95637
G1 X114.328 Y129.476 E16.97193
G1 X113.29 Y129.738 E17.00753
G1 X112.564 Y129.881 E17.03214
G1 X111.351 Y130.045 E17.07286
G1 X110.895 Y130.079 E17.08806
G1 X110.174 Y130.107 E17.11206
G1 X109.895 Y130.108 E17.12134
G1 X109.038 Y130.075 E17.14987
G1 X108.629 Y130.042 E17.16352
G1 X108.072 Y129.982 E17.18215
G1 X107.793 Y129.944 E17.19151
G1 X106.785 Y129.754 E17.22563
